X:1
T:He’ll Drive All the Shadows Away
T:Adam Geibel
T:He’ll Drive All the Shadows Away
T:Public Domain
T:Public Domain
T:Public Domain
C:Adam Geibel
Z:Public Domain
%%score ( 1 2 ) ( 3 4 )
L:1/8
M:6/8
K:Ab
V:1 treble 
V:2 treble 
V:3 bass 
V:4 bass 
V:1
 E | c>=Bc [Fd][FA][_F_B] | [Ec] [CE]4 [CEA] | B>=AB x3 | [Ge][A=d][EB_d] x3 | [EAc]4 z E | %6
w: 1.~The|of the day oft per- plex|The path- way|we tread oft|bare; The sun|seems to|
w: 2.~That|which the sun ne- ver bright-|With mis- ery|and pain ev-|where, May reach|out in|
w: 3.~There’s|one can help us like Je-|No bur- den’s|too heav- y|Him; He wants|ev- ery|
 c>=Bc [Fd][FA][_F_B] | [Ec] [CE]4 [Ec] | B>BB cBF | (D[DG][DF] [DEB]) z E | B>BB [DGB][EGc][FGd] | %11
w: shine but for o- thers, There|to be no|one to care; But some- one|ing * * * our|* steps, He’s guid- ing us|
w: faith and may find Him Who|ev- ery sor-|row to share. He holds out|pierced * * * and|* ed, He knows of the|
w: life filled with sun- shine; With|that shall ne-|ver grow dim. And dai- ly|ing * * * our|* steps, And lead- ing us|
 [FAd] [EAc]4 c | c>cc BAB | ([=Ec]3 [_Ed]2) E | c>cc [CEA][EAc][_Gce] | [_Gce] [FAd]4 [_FA] | %16
w: the dark way;|His love, like the glor- i-|shine, * Will|drive all the sha- dows a-||
w: den each day;|He’ll take all the thorns from|way, * And|drive all the sha- dows a-||
w: the lone way;|We’ll trust in His dear lov-|ness, * To|drive all the sha- dows a-||
 [Ec][Fd][Ec] c<F[Ec] | (CED [CA]2) |] %18
w: ||
w: ||
w: ||
V:2
 E | E3 x3 | x6 | [DG]3 x3 | x6 | x6 | E3 x3 | x6 | E3 =D3 | B3- x3 | [DG]3 x3 | x6 | F3 F3 | x6 | %14
w: cares|us,||seems|||seems||is watch-|foot-|o’er||ous sun-||
w: life|ened,||ery-|||waits||His hands|wound-|bur-||our path-||
w: no|sus,||for|||light||He’s watch-|foot-|all||ing kind-||
 [EA]3 x3 | x6 | x3 =D2 x | A3- x2 |] %18
w: way.||||
w: way.||||
w: way.||||
V:3
 z | [A,,A,]3 [A,,A,]3 | A,,(C,E, A,E,)A,, | [E,,E,]3 [E,B,][F,B,]G, | (A,G,F, E,D,)B,, | %5
 [A,,A,]3 [A,,A,]3 | A,,(C,E, A,E,)A,, | [B,,G,]3 [B,,G,]3 | (G,-B,A, [E,G,]) z2 | z E,E, z E,E, | %10
 A,,(C,E, A,2) z | [F,A,]3 [D,F,]3 | [C,G,]3- [C,G,]2 z | [A,,A,]3 [A,,A,]3 | D,(F,A, D2) [D,A,] | %15
 [E,A,]3 [B,,A,]2 [E,G,] | (A,G,F, [A,,E,]2) x | x5 |] %18
V:4
 x | x6 | x6 | x6 | x6 | x6 | x6 | x6 | E,3- x3 | E,,3 E,,3 | x6 | x6 | x6 | x6 | x6 | x6 | %16
 A,,3- x3 | x5 |] %18

